X:1
T: Da Shaalds o' Foula
C: Traditional, Shetland
R: Jig
M: 6/8
L: 1/8
K: Em
D|"Em"E2G G2e|edB BAB|"G"G2B A2B|"C"G2A "D"GE|
D|"Em"E2G G2e|edB BAB|"G"G2B A2B|1"D"d3 D2:|2"D"d3 D3||
|:"Em"edB ABd|edB A3|"G"G2B A2B|"C"G2A "D"GED|
"Em"edB ABd|gdB A3|"G"G2B A2B|1"D"d3 D3:|2"D"d3 D2|]